X:1
T:Title
%%score { 1 | 2 }
L:1/8
Q:1/4=100
M:4/4
K:Ab
V:1 treble nm="Grand Piano"
V:2 bass 
V:1
 [Ec]>[Ec] [Ec]>[CE] [DF]2 [Fd]2 | [Ec]4 [CA]4 | [CA]>[CA] [CA]>[CA] [EG]2 [DF]2 | [CE]6 z2 | %4
w: H.~C.~Clausen * * * * *||||
 [Ec]>[Ec] [Ec]>[CE] [DF]2 [Fd]2 | [Ec]4 [CE]4 | E>E E>E F2 E2 | [CA]6 z2 | E2 E2 B>E A>B | %9
w: |||||
 [Ec]4 [CA]4 | [Ec]>[Ec] [Ec]>[Ec] [=DF]2 [DB]2 | [DB]6 z2 | [CE]>[CA] [CA]>[DB] [Ec]2 [_Ge]2 | %13
w: ||||
 [_Ge]4 [Fd]4 | c2 E2 F2 E2 | [CA]6 z2 |] %16
w: |||
V:2
 [A,,A,]>[A,,A,] [A,,A,]>[A,,A,] [D,A,]2 [D,A,]2 | [A,,A,]4 [A,,E,]4 | %2
 [A,,E,]>[A,,E,] [A,,E,]>[A,,E,] [A,,A,]2 [A,,A,]2 | [A,,A,]6 z2 | %4
 [A,,A,]>[A,,A,] [A,,A,]>[A,,A,] [D,A,]2 [D,A,]2 | [A,,A,]4 [A,,A,]4 | %6
 [E,A,C]>[E,A,C] [E,G,B,]>[E,A,C] [E,G,D]2 [E,B,D]2 | [A,,A,]6 z2 | %8
 [E,G,D]2 [E,G,D]2 [E,G,D]>[E,B,D] [E,A,C]>[E,G,D] | [A,,A,]4 [A,,E,]4 | %10
 [A,,A,]>[A,,A,] [A,,A,]>[A,,A,] [B,,A,]2 [B,,F,]2 | [E,G,]6 z2 | %12
 [A,,A,]>[A,,E,] [A,,E,]>[A,,A,] [A,,A,]2 [C,A,]2 | [C,A,]4 [D,A,]4 | %14
 [E,A,E]2 [E,A,C]2 [E,G,D]2 [E,G,D]2 | [A,,A,]6 z2 |] %16

